X:1
T:Vier Marienlieder
T:Es klingt durch Wald und Feld und Auen
T:Max Reger
T:Dominikus Stiefenhofer
T:Es klingt durch Wald und Feld und Auen
T:Nr. 1 aus: Vier Marienlieder, Op. 61f
T:Creative Commons Attribution Non Commercial 3.0
T:Creative Commons Attribution Non Commercial 3.0
T:Creative Commons Attribution Non Commercial 3.0
T:Creative Commons Attribution Non Commercial 3.0
C:Max Reger
Z:Dominikus Stiefenhofer
Z:Creative Commons Attribution Non Commercial 3.0
%%score [ ( 1 2 ) ( 3 4 ) ] { ( 5 7 ) | ( 6 8 ) }
L:1/8
Q:1/4=66
M:6/8
K:F
V:1 treble nm="Sopran\nAlt"
V:2 treble 
V:3 bass nm="Tenor\nBass"
V:4 bass 
V:5 treble nm="Orgel"
V:7 treble 
V:6 bass 
V:8 bass 
V:1
"^Zart bewegt" z |: z6 | z3 z2!p!!p!!<(! c | c2 d c2!<)! A | G>A!>(!B AG!>)!!<(!c | %5
w: ||1.~Es|klingt durch Wald und|Feld * und Au- en ein|
w: ||2.~Es|sin- ken grau- e|Ne- * bel nie- der, ver-|
 f2!<)! c A>^cd | G2!>(! =B c2!>)!!p!"^meno" G |"^crescendo" A_Bc d2 ^c | def =B=cd | %9
w: Glöck- lein rein * und|sil- ber- hell. Es|fließt _ der Klang in|al- * len Gau- en, ein|
w: schlei- ert liegt * die|wei- te Rund'! Zur|An- * dacht ruft uns|al- * le wie- der des|
!f!!f! e>dc d2 A |!>(! =B>cd!>)!!p! c2 z | z2!p!"^meno"!<(! G A_Bc!<)! | dfd c2!>(! A | %13
w: himm- * lisch rei- ner|Zau- * ber- quell.|Es sol- * len|al- * le Glo- cken|
w: A- * ve- glöck- leins|Sil- * ber- mund.|O Wun- * der-|vol- * le, trag' das|
 G2 F!>)!!<(! dFG!<)! |"^molto" A2 c B2!>(! A | G3-!>)!!p! G z"^crescendo" G | FGA Bcd | GAB cAF | %18
w: klin- gen dir, o Ma-|ri- a gna- den-|voll, _ zu|dir * der Glo- * cken-|gruß * soll drin- gen, wie|
w: Fle- hen zu dei- nes|Soh- nes ho- hem|Thron, _ auf|dass * wir sei- * ne|Gna- * de se- hen; ver-|
!f! f2 d c2!>(! =B |[Q:1/4=60]"^poco ritardando" ced c3-!>)! |[Q:1/4=66]"^a tempo"!p!!<(! c3 z3 | %21
w: einst des En- gels|Gruß * er- scholl:||
w: nimm das Gru- ßes|mil- * den Ton:||
 d3 e2 f!<)! |!f! (f3!>(! c2) A!>)! |[Q:1/4=60]"^poco ritardando"!p!!p!!<(! B3 A2!<)! G | %24
w: A- ve Ma-|ri- * a!|A- ve Ma-|
w: |||
!>(! G6!>)! |!pp! F6 :| !fermata!z4 |] %27
w: ri-|a!||
w: |||
V:2
 x |: x6 | x3 x2 E | F2 E F2 F | E2 G FEE | F2 E F>ED | E2 G G2 E | FE_E DGA | AGF GGG | %9
w: |||||||||
 G2 G A>GF | G2 F E2 x | x2 E F2 F | F2 F F2 F | E2 D FDD | F2 _E D2 D | (B,3 C) x E | D2 D G2 G | %17
w: ||||||||
 EFG FCF | B2 A G2 F | E2 F E2 z | (F3 G2 A | B3) B2 B | (F3 E2) F | F3 E2 E | E6 | C6 :| x4 |] %27
w: |||A- * *|* ve Ma-|ri- * a!|||||
V:3
 z |: z6 | z3 z2!p!!<(! G, | A,2 B, A,2!<)! C | C2!>(! C CC!>)!!<(!G, | C2!<)! A, A,>G,A, | %6
 C2!>(! D C2!>)!!p!"^meno" C |"^crescendo" C2 F FD=E | F^CD DDD |!f! =C2 E D2 D | %10
!>(! D2 =B,!>)!!p! C3 | z2!p!"^meno"!<(! C C2 C!<)! | B,DB, C2!>(! C | B,2 A,!>)!!<(! A,A,G,!<)! | %14
"^molto" C2 G, G,2!>(! ^F, | (G,2 =F,!>)!!p! E,) z"^crescendo" C | A,2 A, D2 D | C2 D CE_E | %18
!f! D2 D =E2!>(! D | C2 =B, C2!>)! z |!p!!<(! (A,3 _B,2 C | D3) ^C2 D!<)! | %22
!f! (=C3!>(! A,2) D!>)! |!p!!p!!<(! (D2 _D) C2!<)! B, |!>(! B,6!>)! |!pp! A,6 :| !fermata!z4 |] %27
V:4
 x |: x6 | x3 x2 C, | F,2 F, F,2 C, | C,2 E, F,C,B,, | A,,2 C, D,>E,F, | G,2 F, E,2 C, | %7
 F,G,A, B,2 A, | D,2 D, G,A,=B, | C2 E, F,>E,D, | G,2 G,, C,3 | x2 C, F,G,A, | B,2 B, A,2 F, | %13
 ^C,2 D, =B,,B,,B,, | =C,2 C, D,2 D, | (G,,3 C,) x C, | D,E,F, G,A,B, | C2 B, A,A,A, | %18
 D,2 F, G,2 ^G, | A,F,G, C,2 x | (F,6 | B,,3) B,,2 B,, | (A,,3 C,2) D, | G,,3 C,2 C, | F,6 | F,6 :| %26
 x4 |] %27
V:5
 z |: c2 d c2 d | G2 A B2 c- | c2!pp! (B f2) z | c2 (c- [cc']2) (c- | [cc']2) (A- [Aa]2) (A | %6
 G2) (G- [Gg]2)!pp!"^sempre" (c- | [cc']2) (F- [Ff]2) (A- | [Aa]2) (D- [Dd]2) (G- | %9
 [Gg]2) (c- [cc']2) (d- | [dd']2) (G- [Gg]2)!pp!"^sempre" (c- | [cc']2) (c- [cc']2) (f- | %12
 [ff']2) z f2 (A | [Ee]2) (A- [Aa]2)!pp!"^sempre" (F- | %14
 [Ff]2) (G- [Gg]2)"^poco  a poco crescendo" z | d2 (G- [Gg]2) ((G | [Ff]2)) (d- [dd']2) (G- | %17
 [Gg]) z (c fe_e |!mf! d2) (A!>(! c2 d | c2 =B c2)!>)! (G |!p!!<(! F2 f e2 _e | %21
 d2 f [^c=e]2 d!<)! |!mf! =c3!>(! A3)!>)! |!p!!>(! (B3 A2 G- | G2)!>)!!pp! (C c2) (C | %25
!>(! c2) (C c2) (C!>)! :|!ppp! !fermata![CF]4) |] %27
V:6
!p!!<(! C- |: C2 D!<)! C2 B, | G,2 ^F,!>(! G,>A,B,!>)! | A,2 z z2 C- | C2 z z2 C- | C2 z z3 | z6 | %7
 z6 | z6 | z6 | z3 z2!pp!!pp!!pp! [C-G] | [CA]2 [CEG] z3 | z2 F- F2 z | z6 | %14
 z2 [G,-C_E] [G,B,D-]2 [^F,A,D-] | [G,-B,-D]3 [G,B,=E]3 | [F,A,D-]3 [G,-B,D]3 | [G,CE] z C- C3 | %18
 B,2 D C2 =B, | C2 =G,- G,2 _B, | (A,3 B,2 C | D3) ^C2 D | =C3 A,2 D- | D2 _D C2 B,- | B,2 z z3 | %25
 z6 :| [C,A,]4 |] %27
V:7
 x |: z3 E2 F | E2 _E D2 =E | F2 z F2 x | x6 | x6 | x6 | x6 | x6 | x6 | x6 | x6 | x6 | x6 | x6 | %15
 x6 | x6 | x2 G F3- | F3 =E2 F | E2 F E3 | F3 G2 A | F3- F3- | F3 E2 F | F3 E3- | E2 x4 | x6 :| %26
 x4 |] %27
V:8
 x |: z3 z2 G,, | C,3 G,,2 C, | F,,2 x x2 x | x6 | x6 | x6 | x6 | x6 | x6 | x3 x2 E, | F,2 C, x3 | %12
 x6 | x6 | x2 C, D,3 | G,,3 C,3 | D,3 G,,3 | C,2 B,, A,,3 | D,2 F, G,2 ^G, | A,F,G, C,3 | (F,6 | %21
 B,,6) | A,,3 C,2 D, | G,,3 C,3 | F,,6- | F,,6- :| !fermata!F,,4 |] %27

